src/assets/icons/notification-alert.svg

<svg width="24" height="24" viewBox="0 0 24 24" fill="none" xmlns="http://www.w3.org/2000/svg">
<path d="M14.1307 17.75C14.6651 17.75 14.9475 18.774 14.591 19.418C14.3594 19.8374 14.0757 20.173 13.7584 20.4025C13.4411 20.632 13.0975 20.7505 12.7499 20.75C12.4024 20.7505 12.0587 20.632 11.7414 20.4025C11.4241 20.173 11.1404 19.8374 10.9088 19.418C10.5678 18.802 10.8112 17.839 11.3005 17.757L11.3685 17.751L14.1307 17.75Z" stroke="#314158" stroke-width="1.5" stroke-linecap="round" stroke-linejoin="round"/>
<path d="M12.7492 4.75L12.6123 4.75325L12.4708 4.76707C11.9964 4.82698 11.551 5.0375 11.1948 5.37022C10.8385 5.70293 10.5885 6.14184 10.4785 6.62769L10.4708 6.66263L10.2779 6.78125C9.41021 7.33506 8.68566 8.10264 8.16767 9.01682C7.64968 9.931 7.35404 10.9639 7.30663 12.0251L7.30585 14.4383L7.28952 14.5544C7.22734 14.9042 7.09266 15.2355 6.89491 15.525C6.69717 15.8146 6.44117 16.0554 6.14487 16.2306C5.44969 16.6418 5.72885 17.75 6.52824 17.75H18.9701L19.0603 17.7451C19.7889 17.6655 20.0222 16.6263 19.3534 16.2306L19.2275 16.1502L19.0976 16.0551C18.6323 15.6885 18.3153 15.1531 18.2088 14.5544L18.1925 14.4439V12.0625L18.1777 11.8277L18.1559 11.5945" stroke="#314158" stroke-width="1.5" stroke-linecap="round" stroke-linejoin="round"/>
<circle cx="17.4" cy="6.6" r="2.5" fill="#F22A42"/>
</svg>

<svg fill="none" viewBox="0 0 24 24"><path stroke="currentColor" stroke-linecap="round" stroke-linejoin="round" stroke-width="1.5" d="M14.13 17.75c.535 0 .817 1.024.461 1.668-.232.42-.515.755-.833.985a1.7 1.7 0 0 1-1.008.347 1.7 1.7 0 0 1-1.009-.348c-.317-.229-.6-.565-.832-.984-.341-.616-.098-1.579.391-1.661l.068-.006zM12.75 4.75l-.138.003-.141.014c-.475.06-.92.27-1.276.603a2.46 2.46 0 0 0-.716 1.258l-.008.035-.193.118a6.4 6.4 0 0 0-2.11 2.236 6.7 6.7 0 0 0-.861 3.008l-.001 2.413-.016.116c-.063.35-.197.681-.395.971s-.454.53-.75.706c-.695.41-.416 1.519.383 1.519H18.97l.09-.005c.729-.08.962-1.119.293-1.514l-.126-.08-.13-.096a2.46 2.46 0 0 1-.888-1.5l-.017-.111v-2.382l-.014-.234-.022-.233"/><circle cx="17.4" cy="6.6" r="2.5" fill="currentColor"/></svg>
